2025-05-28 19:28:21 - movej(get_inverse_kin(p[0.2791580474918853, 0.04593135448023788, 0.21825990199697307, 2.2166658211135375, -2.213537574272812, -0.006945590993183763], qnear=[0.5593577027320862, -1.0217250029193323, -2.0281041304217737, -1.6719167868243616, 1.5752601623535156, -2.58358341852297]), a=1.3962634015954636, v=1.0471975511965976)
2025-05-28 19:28:43 - movej(get_inverse_kin(p[0.3992661198651184, 0.005857265079364794, 0.21729345837140462, 2.216332633341315, -2.2134391369543827, -0.00657676874708608], qnear=[0.29406553506851196, -1.3324592749225062, -1.8485048452960413, -1.5412052313434046, 1.5720086097717285, -2.848872725163595]), a=1.3962634015954636, v=1.0471975511965976)
2025-05-28 19:31:43 - movej(get_inverse_kin(p[0.2835950063648979, 0.0459218505887281, 0.21819668253598115, 2.216248864563568, -2.213623475505209, -0.007244805055811754], qnear=[0.550414502620697, -1.0342791716205042, -2.022698227559225, -1.6650603453265589, 1.5752960443496704, -2.5922985712634485]), a=1.3962634015954636, v=1.0471975511965976)
2025-05-28 19:31:45 - movej(get_inverse_kin(p[0.29908836121183324, 0.045984107921139876, 0.21808409707067103, 2.216709845787302, -2.2135427708876705, -0.007224071403046188], qnear=[0.5219796895980835, -1.0767963568316858, -2.003279987965719, -1.6417611281024378, 1.5750319957733154, -2.620972458516256]), a=1.3962634015954636, v=1.0471975511965976)
2025-05-28 19:31:48 - movej(get_inverse_kin(p[0.32437386476031593, 0.04602283127480952, 0.21790826176021885, 2.2168635471739195, -2.2137294823259013, -0.007050696204712489], qnear=[0.48140406608581543, -1.1449807325946253, -1.9684107939349573, -1.6082614103900355, 1.574540376663208, -2.6615386644946497]), a=1.3962634015954636, v=1.0471975511965976)
2025-05-28 19:31:51 - movej(get_inverse_kin(p[0.3591495652311353, 0.046035029500276714, 0.2175620070300426, 2.2167263871352274, -2.2136283668099384, -0.007313603467808059], qnear=[0.4347933232784271, -1.2367423216449183, -1.914326016102926, -1.5708683172809046, 1.5741084814071655, -2.708170715962545]), a=1.3962634015954636, v=1.0471975511965976)
2025-05-28 19:31:54 - movej(get_inverse_kin(p[0.36440248009455806, 0.0459819214659103, 0.2175510132053527, 2.216580321449115, -2.2139070816793742, -0.006900061811956455], qnear=[0.42856675386428833, -1.2501638571368616, -1.9056475798236292, -1.5659540335284632, 1.5738204717636108, -2.714212242756979]), a=1.3962634015954636, v=1.0471975511965976)
2025-05-28 19:32:03 - movej(get_inverse_kin(p[0.39913633545020294, 0.045959509081111204, 0.21715529753203394, 2.216259647180166, -2.2137789547283, -0.0070223251247779166], qnear=[0.3913654685020447, -1.3389433065997522, -1.8440216223346155, -1.5391562620746058, 1.5733283758163452, -2.7513981501208704]), a=1.3962634015954636, v=1.0471975511965976)
2025-05-28 19:32:07 - movej(get_inverse_kin(p[0.4191627260066341, 0.04601611048424225, 0.21696297570276324, 2.2164037883278866, -2.2135955155236298, -0.007048981378939147], qnear=[0.37287792563438416, -1.3890546003924769, -1.805542294179098, -1.5275667349444788, 1.5731006860733032, -2.770087544118063]), a=1.3962634015954636, v=1.0471975511965976)
2025-05-28 19:32:10 - movej(get_inverse_kin(p[0.436780965606947, 0.04599847485623161, 0.21682457988412643, 2.216579164934818, -2.213664515339036, -0.006840043921441628], qnear=[0.3579111397266388, -1.4324324766742151, -1.7700594107257288, -1.5194652716266077, 1.572860598564148, -2.785156313573019]), a=1.3962634015954636, v=1.0471975511965976)
2025-05-28 19:32:54 - movej(get_inverse_kin(p[0.45917080099777874, 0.045967675153073095, 0.21658197896074916, 2.216272660151561, -2.2136754400059444, -0.006750258936707994], qnear=[0.34058457612991333, -1.4872258345233362, -1.7224205175982874, -1.5124781767474573, 1.5725007057189941, -2.8024187723742884]), a=1.3962634015954636, v=1.0471975511965976)
2025-05-28 19:33:02 - movej(get_inverse_kin(p[0.45918491360589614, 0.046186864427831834, 0.21664330680536517, 2.216573005703088, -2.213763286626174, -0.006559908574332788], qnear=[0.3410276174545288, -1.4871180693255823, -1.7224324385272425, -1.5122740904437464, 1.5725127458572388, -2.8020711580859583]), a=1.3962634015954636, v=1.0471975511965976)
2025-05-28 19:33:06 - movej(get_inverse_kin(p[0.4591860857863583, 0.06602393486427081, 0.21660189207206554, 2.2167104901110304, -2.2137919566182402, -0.0065404492777373455], qnear=[0.3820619583129883, -1.4929917494403284, -1.717205826436178, -1.5115073362933558, 1.5729445219039917, -2.761096779500143]), a=1.3962634015954636, v=1.0471975511965976)
2025-05-28 19:33:09 - movej(get_inverse_kin(p[0.459066616235757, 0.10595895025651327, 0.21645242058216768, 2.216459634203835, -2.213506428512725, -0.0062601585323670255], qnear=[0.46210387349128723, -1.5108416716205042, -1.7010110060321253, -1.510092560444967, 1.5734126567840576, -2.6811021010028284]), a=1.3962634015954636, v=1.0471975511965976)
2025-05-28 19:33:32 - movej(get_inverse_kin(p[0.27910457922551224, 0.04595427886549056, 0.2182778338241047, 2.216698460425179, -2.2135718811146443, -0.00710129871069637], qnear=[0.5594292283058167, -1.0216048399554651, -2.028116051350729, -1.6720007101642054, 1.5753684043884277, -2.5835116545306605]), a=1.3962634015954636, v=1.0471975511965976)
2025-05-28 19:34:09 - movej(get_inverse_kin(p[0.2938184537295186, 0.06594364759739879, 0.21801247900510456, 2.2164257836256627, -2.2134050818371014, -0.007225640131411631], qnear=[0.5915031433105469, -1.0729506651507776, -2.005294148121969, -1.6437142531024378, 1.5756562948226929, -2.5513859430896204]), a=1.3962634015954636, v=1.0471975511965976)
2025-05-28 19:34:10 - movej(get_inverse_kin(p[0.29908442209875485, 0.06602013946815687, 0.21803263422325558, 2.2168003248819472, -2.213537767238624, -0.007270299698677669], qnear=[0.5814585089683533, -1.0869916121112269, -1.9984615484820765, -1.6361873785602015, 1.5756443738937378, -2.5615387598620813]), a=1.3962634015954636, v=1.0471975511965976)
2025-05-28 19:34:12 - movej(get_inverse_kin(p[0.3192291131418695, 0.04603486208679789, 0.21793459649904723, 2.2168319017177747, -2.2137160556312665, -0.007377865216460168], qnear=[0.48903053998947144, -1.1313098112689417, -1.9757826964007776, -1.6146381537066858, 1.574816346168518, -2.6539023558246058]), a=1.3962634015954636, v=1.0471975511965976)
2025-05-28 20:44:56 - movej(get_inverse_kin(p[0.29921487099050464, 0.0459645029350957, 0.21812289950307576, 2.216502746982626, -2.213786245442997, -0.007079707893632933], qnear=[0.5217759609222412, -1.0770838896380823, -2.003052536641256, -1.6416528860675257, 1.5749481916427612, -2.620972458516256]), a=1.3962634015954636, v=1.0471975511965976)
2025-05-28 20:57:04 - movej(get_inverse_kin(p[0.2791320444562768, 0.0459456139474961, 0.2182588064855735, 2.2166027825410803, -2.2135819730197706, -0.0071044712378003525], qnear=[0.5593577027320862, -1.021712605153219, -2.0281041304217737, -1.671964470540182, 1.575356364250183, -2.5835354963885706]), a=1.3962634015954636, v=1.0471975511965976)
2025-05-28 20:57:15 - movej(get_inverse_kin(p[0.2791193550371708, 0.04593781040901294, 0.21827832595893218, 2.216647351692396, -2.2135735220146864, -0.00711506942591458], qnear=[0.5593457221984863, -1.0216649214373987, -2.0280802885638636, -1.6720126310931605, 1.5753684043884277, -2.583571497594015]), a=1.3962634015954636, v=1.0471975511965976)
2025-05-28 20:58:58 - movej(get_inverse_kin(p[0.2791104032593829, 0.04592467520346393, 0.2182557451406303, 2.216542868903022, -2.213575570468147, -0.007121447742939263], qnear=[0.5593337416648865, -1.0216768423663538, -2.028116051350729, -1.6720364729510706, 1.575356364250183, -2.5835354963885706]), a=1.3962634015954636, v=1.0471975511965976)
2025-05-28 21:06:07 - movej(get_inverse_kin(p[0.27913311235249083, 0.045931198848635404, 0.21828652807887067, 2.216614140762254, -2.2136459973773657, -0.007046577871225224], qnear=[0.5593337416648865, -1.0216649214373987, -2.0280678907977503, -1.671988312398092, 1.5753320455551147, -2.5835354963885706]), a=1.3962634015954636, v=1.0471975511965976)
2025-05-28 21:06:08 - movej(get_inverse_kin(p[0.27912077801487833, 0.04591987588236748, 0.21827578838792702, 2.216551153272925, -2.213662812706813, -0.007077476835607456], qnear=[0.5593097805976868, -1.0216525236712855, -2.0280922094928187, -1.6720126310931605, 1.5753439664840698, -2.5835235754596155]), a=1.3962634015954636, v=1.0471975511965976)
2025-05-28 21:06:09 - movej(get_inverse_kin(p[0.2791311180421897, 0.04593004686825994, 0.21829580458778056, 2.216615528206179, -2.213647769977506, -0.007065169740690678], qnear=[0.5593217611312866, -1.0216649214373987, -2.02804404893984, -1.6720126310931605, 1.5753439664840698, -2.5835474173175257]), a=1.3962634015954636, v=1.0471975511965976)
2025-05-28 21:06:11 - movej(get_inverse_kin(p[0.27911346512814167, 0.04593781469475749, 0.21828344703774533, 2.216615712905718, -2.2136214646980314, -0.007110477143778334], qnear=[0.5593577027320862, -1.0216410795794886, -2.0280802885638636, -1.6720245520221155, 1.5753684043884277, -2.5835235754596155]), a=1.3962634015954636, v=1.0471975511965976)
2025-05-28 21:06:12 - movej(get_inverse_kin(p[0.27911986375925185, 0.04593029133842298, 0.2182999606959071, 2.2166653491989856, -2.2136439984742595, -0.007033893870098361], qnear=[0.5593577027320862, -1.0216048399554651, -2.0280678907977503, -1.6720126310931605, 1.5753320455551147, -2.5835354963885706]), a=1.3962634015954636, v=1.0471975511965976)
2025-05-28 21:06:13 - movej(get_inverse_kin(p[0.2791291773034864, 0.04593610925210182, 0.21828538510074255, 2.2166188095107855, -2.2136240987907043, -0.007050662751932286], qnear=[0.5593577027320862, -1.0216649214373987, -2.0280678907977503, -1.6720007101642054, 1.5753320455551147, -2.5835235754596155]), a=1.3962634015954636, v=1.0471975511965976)
2025-05-28 21:06:14 - movej(get_inverse_kin(p[0.2791274398197453, 0.04594664453686602, 0.21825914592788617, 2.2165894991323385, -2.2135692952832335, -0.007149757263370124], qnear=[0.5593457221984863, -1.0217250029193323, -2.0280922094928187, -1.671988312398092, 1.5753803253173828, -2.5835474173175257]), a=1.3962634015954636, v=1.0471975511965976)
2025-05-28 21:06:15 - movej(get_inverse_kin(p[0.27917801078748583, 0.02589649424154472, 0.21838673680813037, 2.2164539228783062, -2.2138858850321577, -0.007146745213243748], qnear=[0.4930778443813324, -1.014489475880758, -2.030861202870504, -1.6764710585223597, 1.57476806640625, -2.6496105829821985]), a=1.3962634015954636, v=1.0471975511965976)
2025-05-28 21:06:28 - movej(get_inverse_kin(p[0.2791056885965658, 0.045940880854267174, 0.21825892322882434, 2.2166168363768786, -2.2136228207579087, -0.0072063730042419664], qnear=[0.5593217611312866, -1.0216410795794886, -2.028140370045797, -1.671976391469137, 1.5754282474517822, -2.58355957666506]), a=1.3962634015954636, v=1.0471975511965976)
2025-05-28 21:06:30 - movej(get_inverse_kin(p[0.27911532952698886, 0.04593121865217165, 0.21826836274167524, 2.2166569468470914, -2.213556205732708, -0.007077584497127333], qnear=[0.5593577027320862, -1.0216410795794886, -2.028116051350729, -1.6720007101642054, 1.5753439664840698, -2.583571497594015]), a=1.3962634015954636, v=1.0471975511965976)
2025-05-28 21:06:31 - movej(get_inverse_kin(p[0.2791207055906368, 0.04593508072630795, 0.21828537470799425, 2.2166115495742806, -2.2136965979691627, -0.007111889516019778], qnear=[0.5593217611312866, -1.0216286818133753, -2.0280922094928187, -1.671976391469137, 1.5753803253173828, -2.5835235754596155]), a=1.3962634015954636, v=1.0471975511965976)
2025-05-28 21:09:05 - movej(get_inverse_kin(p[0.27911475372765476, 0.04593478213678018, 0.2182579425956089, 2.21657267788071, -2.2135785110758226, -0.007112857116316645], qnear=[0.5593577027320862, -1.0216768423663538, -2.028116051350729, -1.6720126310931605, 1.575356364250183, -2.5835235754596155]), a=1.3962634015954636, v=1.0471975511965976)
2025-05-28 21:15:04 - movej(get_inverse_kin(p[0.27995289089880815, 0.04596415079289548, 0.21827423296375828, 2.216592437362784, -2.2135925297139982, -0.00715205665472554], qnear=[0.5577413439750671, -1.024024788533346, -2.0270608107196253, -1.6707060972796839, 1.5753684043884277, -2.585142199193136]), a=1.3962634015954636, v=1.0471975511965976)
2025-05-28 21:15:08 - movej(get_inverse_kin(p[0.29918534895416343, 0.04598669816318424, 0.2180757602435034, 2.216785675441813, -2.2134320335424973, -0.007081138001521454], qnear=[0.5219077467918396, -1.077036205922262, -2.0031846205340784, -1.6416171232806605, 1.5749361515045166, -2.6211281458484095]), a=1.3962634015954636, v=1.0471975511965976)
2025-05-28 21:15:10 - movej(get_inverse_kin(p[0.33920267503203516, 0.0460047460583828, 0.21766914858928743, 2.2166141643203123, -2.213504329781911, -0.0072035997876524], qnear=[0.46033167839050293, -1.1845935026751917, -1.9462712446795862, -1.591170612965719, 1.574288249015808, -2.682612482701437]), a=1.3962634015954636, v=1.0471975511965976)
2025-05-28 21:15:14 - movej(get_inverse_kin(p[0.35926302747642225, 0.04602882849199427, 0.21756922827104797, 2.216759212995559, -2.2137380397734034, -0.006976921651076641], qnear=[0.43476933240890503, -1.2368863264666956, -1.9142540136920374, -1.5706284681903284, 1.5739407539367676, -2.70815879503359]), a=1.3962634015954636, v=1.0471975511965976)
2025-05-28 21:15:15 - movej(get_inverse_kin(p[0.3591555555361296, 0.06602320345178668, 0.217428206619816, 2.2166582656624665, -2.2136075412189022, -0.007033965903133891], qnear=[0.486192911863327, -1.244831387196676, -1.9094355742083948, -1.5675957838641565, 1.5744200944900513, -2.656755272542135]), a=1.3962634015954636, v=1.0471975511965976)
2025-05-28 21:18:29 - movej(get_inverse_kin(p[0.2791892912831547, 0.04594767569102019, 0.2182486268885428, 2.2165824924541493, -2.213587537819603, -0.007031627741308035], qnear=[0.5592978000640869, -1.0218566099749964, -2.0280678907977503, -1.671856705342428, 1.575308084487915, -2.58358341852297]), a=1.3962634015954636, v=1.0471975511965976)
2025-05-28 21:18:30 - movej(get_inverse_kin(p[0.299128115109069, 0.0459619540168431, 0.21807206065489979, 2.21655465426489, -2.213572920856462, -0.007066924975883377], qnear=[0.5219557285308838, -1.0769041220294397, -2.003244225178854, -1.6417487303363245, 1.574912190437317, -2.6209123770343226]), a=1.3962634015954636, v=1.0471975511965976)
2025-05-28 21:18:32 - movej(get_inverse_kin(p[0.3216226816842487, 0.046052393832355966, 0.2179755411176694, 2.2169431547448397, -2.213789991297843, -0.006846238226380081], qnear=[0.48569032549858093, -1.1375163237201136, -1.9723666349994105, -1.6116297880755823, 1.574492335319519, -2.6572588125811976]), a=1.3962634015954636, v=1.0471975511965976)
2025-05-28 21:18:33 - movej(get_inverse_kin(p[0.35921751068709407, 0.0460355394788508, 0.2175502067924471, 2.216618062555129, -2.213599025829359, -0.0071693617222478466], qnear=[0.434805303812027, -1.236934010182516, -1.9142182509051722, -1.5708444754229944, 1.573988676071167, -2.708122793828146]), a=1.3962634015954636, v=1.0471975511965976)
2025-05-28 21:18:35 - movej(get_inverse_kin(p[0.35908612557226866, 0.0660598482523805, 0.2174491811712092, 2.2166863965391626, -2.213345327016996, -0.007151301258796421], qnear=[0.48636066913604736, -1.2447951475726526, -1.9093635717975062, -1.5678837935077112, 1.574444055557251, -2.65671950975527]), a=1.3962634015954636, v=1.0471975511965976)
2025-05-28 21:18:36 - movej(get_inverse_kin(p[0.3590946050352354, 0.08605605214779838, 0.2174120435049817, 2.2167244429185544, -2.213405098462896, -0.007021523216384089], qnear=[0.5357959866523743, -1.255580250416891, -1.9023988882647913, -1.563880745564596, 1.5748642683029175, -2.6072827021228235]), a=1.3962634015954636, v=1.0471975511965976)
2025-05-28 21:18:37 - movej(get_inverse_kin(p[0.35912116713332665, 0.10607127061414239, 0.21738943023309507, 2.216821577047304, -2.2135243246496468, -0.0068833230651851275], qnear=[0.5831943154335022, -1.2689664999591272, -1.8935402075396937, -1.5590747038470667, 1.5752601623535156, -2.5598846117602747]), a=1.3962634015954636, v=1.0471975511965976)
2025-05-28 21:18:39 - movej(get_inverse_kin(p[0.3590533050451859, 0.12602655618333472, 0.2172904686421255, 2.2166910431011093, -2.2133120222582296, -0.00689382368857925], qnear=[0.6284250617027283, -1.2848084608661097, -1.8828962484942835, -1.5539935270892542, 1.5756443738937378, -2.514704767857687]), a=1.3962634015954636, v=1.0471975511965976)
2025-05-28 21:18:43 - movej(get_inverse_kin(p[0.35908752493535473, 0.12603872195302368, 0.21728705474241128, 2.216680691726132, -2.213513592866698, -0.007032386221633593], qnear=[0.6283171772956848, -1.284844700490133, -1.8829081694232386, -1.5538256804095667, 1.5757522583007812, -2.514716927205221]), a=1.3962634015954636, v=1.0471975511965976)
2025-05-28 21:18:46 - movej(get_inverse_kin(p[0.3448375750811214, 0.1601984209448969, 0.21730785793370433, 2.2169623803598872, -2.2131732708204943, -0.007266681182402486], qnear=[0.7251325249671936, -1.284006420766012, -1.8835070768939417, -1.5537779966937464, 1.5768083333969116, -2.418185297642843]), a=1.3962634015954636, v=1.0471975511965976)
2025-05-28 21:18:47 - movej(get_inverse_kin(p[0.32483632266194934, 0.1601292764203655, 0.21749822581344927, 2.2170320529592624, -2.2131461952283407, -0.007030572149475843], qnear=[0.7629502415657043, -1.2369940916644495, -1.9145296255694788, -1.569573704396383, 1.5770480632781982, -2.380379025136129]), a=1.3962634015954636, v=1.0471975511965976)
2025-05-28 21:19:05 - movej(get_inverse_kin(p[0.2991547333396935, 0.0459226112122742, 0.21807313866322933, 2.216439414592431, -2.2135907765210496, -0.007098338690892554], qnear=[0.5217879414558411, -1.0770118872271937, -2.003172222767965, -1.641784969960348, 1.574912190437317, -2.6210203806506556]), a=1.3962634015954636, v=1.0471975511965976)
2025-05-28 21:19:06 - movej(get_inverse_kin(p[0.29920726300969963, 0.02591367335474647, 0.2181600294698219, 2.2161765595668195, -2.213895955796329, -0.00709135132150504], qnear=[0.4594576060771942, -1.0704472700702112, -2.006097141896383, -1.6455004850970667, 1.5743002891540527, -2.683092180882589]), a=1.3962634015954636, v=1.0471975511965976)
2025-05-28 21:19:07 - movej(get_inverse_kin(p[0.29921503136711936, 0.0058803047805124475, 0.21816851369563361, 2.2161542367839258, -2.2136960402923176, -0.007052042675450685], qnear=[0.3948015868663788, -1.0674641768084925, -2.00745135942568, -1.6473339239703577, 1.5735688209533691, -2.7478256861316126]), a=1.3962634015954636, v=1.0471975511965976)
2025-05-28 21:19:10 - movej(get_inverse_kin(p[0.29910484405503973, -0.01417846493668119, 0.21826109787026488, 2.2164337209034284, -2.2135555539061067, -0.00716556163842093], qnear=[0.32811984419822693, -1.067763630543844, -2.007080380116598, -1.647369686757223, 1.5729928016662598, -2.8146947065936487]), a=1.3962634015954636, v=1.0471975511965976)
2025-05-28 21:20:23 - movej(get_inverse_kin(p[0.3178041370923362, -0.01331344853711705, 0.2148279432522163, 2.213751180026854, -2.208815804479164, -0.02622538191943121], qnear=[0.30333346128463745, -1.127991024647848, -1.9830344359027308, -1.6214092413531702, 1.5811039209365845, -2.8405049482928675]), a=1.3962634015954636, v=1.0471975511965976)
2025-05-28 21:20:24 - movej(get_inverse_kin(p[0.317801448295732, 0.00668025457435425, 0.21493146524075038, 2.213631900197659, -2.208873389522239, -0.02606457061252195], qnear=[0.3654308617115021, -1.127319637929098, -1.9832623640643519, -1.6213014761554163, 1.5822439193725586, -2.7783353964435022]), a=1.3962634015954636, v=1.0471975511965976)
2025-05-28 21:20:27 - movej(get_inverse_kin(p[0.3176548541855958, 0.02669538607676851, 0.21492943253847857, 2.2134594122987816, -2.208856667772618, -0.026284681135736485], qnear=[0.4261002540588379, -1.1297882238971155, -1.9820516745196741, -1.6196120421039026, 1.5835154056549072, -2.717604939137594]), a=1.3962634015954636, v=1.0471975511965976)
2025-05-28 21:20:28 - movej(get_inverse_kin(p[0.31782989671012385, 0.03206769788653101, 0.21509493135568997, 2.213845538924477, -2.2092038195890615, -0.026158030222906806], qnear=[0.44171345233917236, -1.1312382856952112, -1.9810088316546839, -1.6185210386859339, 1.583911657333374, -2.7020085493670862]), a=1.3962634015954636, v=1.0471975511965976)
2025-05-28 21:20:29 - movej(get_inverse_kin(p[0.3239259920646724, 0.04671616522893921, 0.21490527945559013, 2.2135492019613783, -2.2091254916356435, -0.026355693376886653], qnear=[0.4753456711769104, -1.1525290648089808, -1.9698250929461878, -1.608321491871969, 1.5845595598220825, -2.6682871023761194]), a=1.3962634015954636, v=1.0471975511965976)
2025-05-28 21:20:31 - movej(get_inverse_kin(p[0.3376736765680714, 0.06672712541413989, 0.21469015535110647, 2.2137684737292327, -2.2090984850030835, -0.026027710104514868], qnear=[0.5099591016769409, -1.197498623524801, -1.944329563771383, -1.5882461706744593, 1.5849913358688354, -2.633799139653341]), a=1.3962634015954636, v=1.0471975511965976)
2025-05-28 21:20:35 - movej(get_inverse_kin(p[0.35769391280587487, 0.06676194850905717, 0.21426884987152758, 2.2136518329969133, -2.209071175571519, -0.026292788595174407], qnear=[0.4821822941303253, -1.2494929472552698, -1.9124677816974085, -1.5685909430133265, 1.5845714807510376, -2.66156250635256]), a=1.3962634015954636, v=1.0471975511965976)
2025-05-28 21:20:37 - movej(get_inverse_kin(p[0.3576238597257529, 0.08430305385332482, 0.21421433670430085, 2.2133186466122097, -2.2088746179872993, -0.02576911678832087], qnear=[0.5259183645248413, -1.258660618458883, -1.9065941015826624, -1.5650432745562952, 1.584943413734436, -2.617771927510397]), a=1.3962634015954636, v=1.0471975511965976)
2025-05-28 21:36:26 - movej(get_inverse_kin(p[0.2950860913818234, 0.04587135550280693, 0.2083797561405858, 2.2146090203610873, -2.192106063534555, -0.02336293858764169], qnear=[0.5233447551727295, -1.0793245474444788, -2.0225661436664026, -1.6386321226703089, 1.580683708190918, -2.628476683293478]), a=1.3962634015954636, v=1.0471975511965976)
2025-05-28 21:36:26 - movej(get_inverse_kin(p[0.29510904129844245, 0.04585585322980481, 0.20841167816893516, 2.2148143319702442, -2.191857479544201, -0.023046871749141315], qnear=[0.5234522223472595, -1.0793126265155237, -2.022494618092672, -1.6386922041522425, 1.5804799795150757, -2.6285725275622767]), a=1.3962634015954636, v=1.0471975511965976)
2025-05-28 21:36:28 - movej(get_inverse_kin(p[0.3350814109570387, 0.046233845873893044, 0.2072991345556614, 2.2146703444645826, -2.191983548175594, -0.023217877067699656], qnear=[0.46294164657592773, -1.1877687613116663, -1.9665172735797327, -1.5866640249835413, 1.578752040863037, -2.68895394006838]), a=1.3962634015954636, v=1.0471975511965976)
2025-05-28 21:36:28 - movej(get_inverse_kin(p[0.34790382409919773, 0.046431034144107194, 0.20695422789808746, 2.215002627280965, -2.191907556050086, -0.022813908143661188], qnear=[0.4468382000923157, -1.2215359846698206, -1.9467628637896937, -1.5724862257586878, 1.5780681371688843, -2.705245319996969]), a=1.3962634015954636, v=1.0471975511965976)
2025-05-28 21:36:29 - movej(get_inverse_kin(p[0.35506574239871824, 0.046419700972270474, 0.2066980459738095, 2.214640555049326, -2.191806199453865, -0.023092824407936096], qnear=[0.4379062056541443, -1.2405770460711878, -1.9351595083819788, -1.565462891255514, 1.5778521299362183, -2.7140684763537806]), a=1.3962634015954636, v=1.0471975511965976)
2025-05-28 21:36:30 - movej(get_inverse_kin(p[0.38365392173299767, 0.01836683485255344, 0.20612105588866492, 2.214537604332122, -2.1919044796454843, -0.02354558281546414], qnear=[0.3363582491874695, -1.308202091847555, -1.8903043905841272, -1.5431831518756312, 1.5750683546066284, -2.8155339399920862]), a=1.3962634015954636, v=1.0471975511965976)
2025-05-28 21:36:31 - movej(get_inverse_kin(p[0.390338233935721, 0.011895262216137483, 0.20596697529051528, 2.214599617701877, -2.191807035401826, -0.02309922302269192], qnear=[0.31478065252304077, -1.3245251814471644, -1.8788445631610315, -1.5382569471942347, 1.5741444826126099, -2.837184254323141]), a=1.3962634015954636, v=1.0471975511965976)
2025-05-28 21:36:32 - movej(get_inverse_kin(p[0.4122874707148892, -0.009745282048025489, 0.20549363415627334, 2.214183767859213, -2.1919360417329212, -0.023115322168739405], qnear=[0.24671775102615356, -1.3799689451800745, -1.8376081625567835, -1.5242589155780237, 1.5719846487045288, -2.905025068913595]), a=1.3962634015954636, v=1.0471975511965976)
2025-05-28 21:36:32 - movej(get_inverse_kin(p[0.41244405354524416, -0.02834719362316414, 0.2056426691988332, 2.2144806027720154, -2.1916366006703982, -0.022947615284310937], qnear=[0.2020154595375061, -1.3821623961078089, -1.835510555897848, -1.524043385182516, 1.570556640625, -2.9499805609332483]), a=1.3962634015954636, v=1.0471975511965976)
2025-05-28 21:36:34 - movej(get_inverse_kin(p[0.41267255314193435, -0.049856567330080905, 0.20588984488538872, 2.21434228361291, -2.1918143605279465, -0.022701198199674893], qnear=[0.15001778304576874, -1.3873284498797815, -1.8308118025409144, -1.5233119169818323, 1.5689009428024292, -3.0018182436572474]), a=1.3962634015954636, v=1.0471975511965976)
2025-05-28 21:36:34 - movej(get_inverse_kin(p[0.41286379827659575, -0.0684527471879944, 0.20599884379595987, 2.2143499671287055, -2.191698197309352, -0.022839309671980983], qnear=[0.10495222359895706, -1.3941238562213343, -1.8250816504107874, -1.5221617857562464, 1.5675928592681885, -3.0469303766833704]), a=1.3962634015954636, v=1.0471975511965976)
2025-05-28 21:36:38 - movej(get_inverse_kin(p[0.41286275403290695, -0.05811561560526289, 0.20596382386582854, 2.214309367924063, -2.1916913121855743, -0.022219562723734005], qnear=[0.13017377257347107, -1.3902047316180628, -1.8283541838275355, -1.5227130095111292, 1.5680010318756104, -3.0216944853412073]), a=1.3962634015954636, v=1.0471975511965976)
2025-05-28 21:36:40 - movej(get_inverse_kin(p[0.4129222814063282, -0.06989178443909966, 0.2060695829578296, 2.214268468195976, -2.191837254551179, -0.022213311322262827], qnear=[0.10164682567119598, -1.3945916334735315, -1.82459003130068, -1.521886173878805, 1.567209005355835, -3.050131146107809]), a=1.3962634015954636, v=1.0471975511965976)
2025-05-28 21:36:41 - movej(get_inverse_kin(p[0.41272866139379993, -0.06987894000024529, 0.2061305777687546, 2.2142666599672487, -2.191966698759545, -0.022117026510575986], qnear=[0.1017187312245369, -1.3940284887896937, -1.8249138037311, -1.522017780934469, 1.56722092628479, -3.0499993006335657]), a=1.3962634015954636, v=1.0471975511965976)
2025-05-28 21:36:42 - movej(get_inverse_kin(p[0.3982621160022981, -0.0700043487348942, 0.20654474966384936, 2.214122568625219, -2.1920398285553047, -0.022160099467045866], qnear=[0.10505971312522888, -1.3580835501300257, -1.8522332350360315, -1.5307186285602015, 1.5673408508300781, -3.046522919331686]), a=1.3962634015954636, v=1.0471975511965976)
2025-05-28 21:36:43 - movej(get_inverse_kin(p[0.43053135266174397, -0.06971550201751361, 0.2055953304838182, 2.214096600651452, -2.1919301270400253, -0.022359289303411464], qnear=[0.09793434292078018, -1.4380062262164515, -1.7896235624896448, -1.5135205427752894, 1.5671011209487915, -3.0537758509265345]), a=1.3962634015954636, v=1.0471975511965976)
2025-05-28 21:36:46 - movej(get_inverse_kin(p[0.4529362875100999, -0.06941163773047367, 0.20493695310596224, 2.2141087382180635, -2.191703035552221, -0.022454436315538895], qnear=[0.09387393295764923, -1.49261981645693, -1.7429078261004847, -1.505754295979635, 1.566884994506836, -3.0580199400531214]), a=1.3962634015954636, v=1.0471975511965976)
2025-05-28 21:36:48 - movej(get_inverse_kin(p[0.45292969725011933, -0.06941650663963894, 0.20495357099672426, 2.21431716427978, -2.191671818099869, -0.02222236484841395], qnear=[0.09388592094182968, -1.4924762884723108, -1.7430394331561487, -1.5055745283709925, 1.5668491125106812, -3.05811578432192]), a=1.3962634015954636, v=1.0471975511965976)
2025-05-28 21:36:49 - movej(get_inverse_kin(p[0.49051506995617516, -0.06909906541531907, 0.20394647907755514, 2.2140036693466167, -2.1918869543666397, -0.022226456268435158], qnear=[0.08751480281352997, -1.5828331152545374, -1.658490006123678, -1.4997862021075647, 1.5665490627288818, -3.064397398625509]), a=1.3962634015954636, v=1.0471975511965976)
2025-05-28 21:36:50 - movej(get_inverse_kin(p[0.4991505252492716, -0.06902223429224051, 0.2037334480807776, 2.214080227260137, -2.1920445812760594, -0.021948452117096773], qnear=[0.08620927482843399, -1.6032756010638636, -1.638146702443258, -1.4994385878192347, 1.5664647817611694, -3.0657039324389856]), a=1.3962634015954636, v=1.0471975511965976)
2025-05-28 21:42:33 - movej(get_inverse_kin(p[0.2991757946968871, 0.04594851350901599, 0.21809377917597741, 2.216632365302909, -2.213572453846267, -0.007242560716509827], qnear=[0.5217159986495972, -1.077048126851217, -2.003124539052145, -1.6417010466205042, 1.5750319957733154, -2.621187988911764]), a=1.3962634015954636, v=1.0471975511965976)
2025-05-28 21:42:34 - movej(get_inverse_kin(p[0.3161099254422499, 0.04598069727704165, 0.21789121250595528, 2.216601663800283, -2.213652675432254, -0.007209284669438252], qnear=[0.49384409189224243, -1.1229708830462855, -1.9803136030780237, -1.6186049620257776, 1.574708104133606, -2.6490116755114954]), a=1.3962634015954636, v=1.0471975511965976)
2025-05-28 21:44:07 - movej(get_inverse_kin(p[0.3392023896707507, 0.04599091444658719, 0.21772251867747605, 2.2164691496956457, -2.2138631888969798, -0.00714305519474668], qnear=[0.4602837562561035, -1.1844857374774378, -1.946235481892721, -1.591158692036764, 1.5743002891540527, -2.6824327150927942]), a=1.3962634015954636, v=1.0471975511965976)
2025-05-28 21:58:38 - movej(get_inverse_kin(p[0.2791200332199758, 0.04595308639742504, 0.2182763231181793, 2.2166622058195014, -2.2135621875103015, -0.0071328512651549075], qnear=[0.5593816637992859, -1.0216768423663538, -2.0280802885638636, -1.6720007101642054, 1.5753803253173828, -2.5835474173175257]), a=1.3962634015954636, v=1.0471975511965976)
2025-05-28 22:25:46 - movej(get_inverse_kin(p[0.2991345482970984, 0.045941694093559374, 0.21809221782115434, 2.216575768625354, -2.213515542374541, -0.007138285817351967], qnear=[0.5218478441238403, -1.0769522825824183, -2.0031607786761683, -1.6418207327472132, 1.5749481916427612, -2.621056143437521]), a=1.3962634015954636, v=1.0471975511965976)
2025-05-28 22:25:50 - movej(get_inverse_kin(p[0.31916443784437404, 0.045982179961978675, 0.21792847379971986, 2.2168005173604755, -2.213471438588242, -0.007016699740674889], qnear=[0.48922228813171387, -1.1311300436602991, -1.9758666197406214, -1.6148536841021937, 1.574540376663208, -2.6538060347186487]), a=1.3962634015954636, v=1.0471975511965976)
2025-05-28 22:25:54 - movej(get_inverse_kin(p[0.31910511891321436, 0.06599952762673274, 0.2178109650052408, 2.2168320073406944, -2.213294555675228, -0.006987935608025093], qnear=[0.5458889603614807, -1.140451733266012, -1.9711077849017542, -1.6102755705462855, 1.57504403591156, -2.5972371737109583]), a=1.3962634015954636, v=1.0471975511965976)
2025-05-28 22:25:56 - movej(get_inverse_kin(p[0.33915607173858175, 0.06603711845041033, 0.21770716985686134, 2.2168727716852556, -2.2136293912314993, -0.007161696239300541], qnear=[0.5142213702201843, -1.1930411497699183, -1.9412244001971644, -1.58740741411318, 1.5748642683029175, -2.6287882963763636]), a=1.3962634015954636, v=1.0471975511965976)
2025-05-28 22:25:59 - movej(get_inverse_kin(p[0.3592080241646362, 0.06608599641785631, 0.21757342584622155, 2.216978059809728, -2.2138211152163034, -0.007168976303843347], qnear=[0.4861333668231964, -1.244807545338766, -1.9091599623309534, -1.5675600210772913, 1.5746122598648071, -2.656863276158468]), a=1.3962634015954636, v=1.0471975511965976)
2025-05-28 22:26:01 - movej(get_inverse_kin(p[0.37922830568902444, 0.06610120619809887, 0.21741516926969598, 2.2170494600257946, -2.2136657912515294, -0.0070977512455471506], qnear=[0.4610140323638916, -1.2958348433123987, -1.8748768011676233, -1.550901238118307, 1.5742642879486084, -2.6821211020099085]), a=1.3962634015954636, v=1.0471975511965976)
2025-05-28 22:26:03 - movej(get_inverse_kin(p[0.3968419617359136, 0.06616157863044146, 0.2172500719404742, 2.217282496090217, -2.213637995601342, -0.007003758053513474], qnear=[0.4410550594329834, -1.3400338331805628, -1.8431103865252894, -1.5383408705340784, 1.5740246772766113, -2.7022367159472864]), a=1.3962634015954636, v=1.0471975511965976)
2025-05-28 22:26:05 - movej(get_inverse_kin(p[0.4192909545569761, 0.06619421755086247, 0.21706074966306302, 2.217052062487712, -2.2138270948327547, -0.007048503169899802], qnear=[0.4178985357284546, -1.395766560231344, -1.800016228352682, -1.5257685820208948, 1.5737725496292114, -2.725265089665548]), a=1.3962634015954636, v=1.0471975511965976)
2025-05-28 22:26:06 - movej(get_inverse_kin(p[0.42548499143772184, 0.06619446000713111, 0.21704164021566122, 2.2172079506375693, -2.213821348776015, -0.006717920316273366], qnear=[0.4120195508003235, -1.4108570257769983, -1.7877410093890589, -1.5227845350848597, 1.5735448598861694, -2.731234614049093]), a=1.3962634015954636, v=1.0471975511965976)
2025-05-28 22:26:08 - movej(get_inverse_kin(p[0.4192957781623165, 0.06617903474091216, 0.21706708105024522, 2.2173763316038593, -2.213802785772552, -0.006760545369926525], qnear=[0.4179225265979767, -1.3955867926227015, -1.8002079168902796, -1.5254929701434534, 1.5736767053604126, -2.7253969351397913]), a=1.3962634015954636, v=1.0471975511965976)
2025-05-28 22:26:10 - movej(get_inverse_kin(p[0.41932752385526895, 0.046134628971115636, 0.21714679596306422, 2.217241531040228, -2.213662013045297, -0.006716129822799498], qnear=[0.3729618191719055, -1.3890546003924769, -1.8052309195147913, -1.5272071997271937, 1.5731606483459473, -2.770351235066549]), a=1.3962634015954636, v=1.0471975511965976)
2025-05-28 22:26:11 - movej(get_inverse_kin(p[0.4193252739840757, 0.028525250319439113, 0.21715148041203192, 2.2174223568516567, -2.213616874129735, -0.006846029133613571], qnear=[0.3324783742427826, -1.3850749174701136, -1.8084190527545374, -1.5279620329486292, 1.5728965997695923, -2.8109305540667933]), a=1.3962634015954636, v=1.0471975511965976)
2025-05-28 22:26:12 - movej(get_inverse_kin(p[0.41927676572357325, 0.031374595820964725, 0.2172070577582295, 2.217219044567499, -2.213538454913569, -0.006635531023641219], qnear=[0.3392438292503357, -1.3855064550982874, -1.8079035917865198, -1.5281661192523401, 1.572752833366394, -2.8041093985186976]), a=1.3962634015954636, v=1.0471975511965976)
2025-05-28 22:26:13 - movej(get_inverse_kin(p[0.41933762189765766, 0.05234211702026449, 0.21711968797531045, 2.2172082481418878, -2.213380333227096, -0.006741680876557379], qnear=[0.3870548903942108, -1.3910320440875452, -1.8036602179156702, -1.527003590260641, 1.5732206106185913, -2.756373469029562]), a=1.3962634015954636, v=1.0471975511965976)
2025-05-28 22:27:29 - movej(get_inverse_kin(p[0.29766099035761917, 0.04746438010219056, 0.2145519771331701, 2.2233198746865193, -2.2003282443169083, -0.018918753314241723], qnear=[0.5233447551727295, -1.0791567007647913, -2.009681049977438, -1.6393993536578577, 1.5810199975967407, -2.628620449696676]), a=1.3962634015954636, v=1.0471975511965976)
2025-05-28 22:27:30 - movej(get_inverse_kin(p[0.29753707991045275, 0.04741929505423833, 0.21465156361584314, 2.223365197342938, -2.2004735935586415, -0.01848465507312368], qnear=[0.523643970489502, -1.0786054770099085, -2.0097411314593714, -1.6396873633014124, 1.58079195022583, -2.628273073826925]), a=1.3962634015954636, v=1.0471975511965976)
2025-05-28 22:27:32 - movej(get_inverse_kin(p[0.2775793652864922, 0.04722773281893696, 0.21500613923938094, 2.2233895781049298, -2.200515717577739, -0.018578628574769742], qnear=[0.5603632926940918, -1.0233176390277308, -2.03437310854067, -1.6700108687030237, 1.581487774848938, -2.591555658970968]), a=1.3962634015954636, v=1.0471975511965976)
2025-05-28 22:27:33 - movej(get_inverse_kin(p[0.2942185174301658, 0.047384980308168435, 0.21466699678192797, 2.223283576783045, -2.200364174968446, -0.018869196497660667], qnear=[0.5292110443115234, -1.0696681181537073, -2.013984505330221, -1.644529167805807, 1.5810920000076294, -2.6227224508868616]), a=1.3962634015954636, v=1.0471975511965976)
2025-05-28 22:27:34 - movej(get_inverse_kin(p[0.3118657843826268, 0.03333869349179881, 0.21444514395243353, 2.2232507262697747, -2.200519004914729, -0.018756358852138968], qnear=[0.457937091588974, -1.1128228346454065, -1.9928877989398401, -1.6229074637042444, 1.5798441171646118, -2.6939054171191614]), a=1.3962634015954636, v=1.0471975511965976)
2025-05-28 22:27:36 - movej(get_inverse_kin(p[0.3119079217315169, 0.033380791712664136, 0.2144414405792643, 2.2232545307158973, -2.2006765838931064, -0.01835126004848857], qnear=[0.45818838477134705, -1.112762753163473, -1.9929717222796839, -1.6226919333087366, 1.5796400308609009, -2.6935814062701624]), a=1.3962634015954636, v=1.0471975511965976)
2025-05-28 22:27:36 - movej(get_inverse_kin(p[0.3121510447120709, 0.01334800769140774, 0.21445956637439906, 2.2230785243929376, -2.2007216437111268, -0.018447502142402383], qnear=[0.3966935873031616, -1.109420124684469, -1.9945419470416468, -1.6249573866473597, 1.5786441564559937, -2.7549710909472864]), a=1.3962634015954636, v=1.0471975511965976)
2025-05-28 22:27:37 - movej(get_inverse_kin(p[0.31225976378810516, -0.006705507328596618, 0.21448161362310175, 2.2229828724313307, -2.2008691035475683, -0.01841286656802011], qnear=[0.33360373973846436, -1.1090605894671839, -1.9946015516864222, -1.6255443731891077, 1.5775641202926636, -2.8179436365710657]), a=1.3962634015954636, v=1.0471975511965976)
2025-05-28 22:27:38 - movej(get_inverse_kin(p[0.3123348229236703, -0.0027681510954042877, 0.21450549197306112, 2.223336701652862, -2.200435355903825, -0.018232052326998583], qnear=[0.3461167812347412, -1.1090849081622522, -1.9945419470416468, -1.6255205313311976, 1.5776479244232178, -2.8057873884784144]), a=1.3962634015954636, v=1.0471975511965976)
2025-05-28 22:27:39 - movej(get_inverse_kin(p[0.31178655484599727, 0.03331566021527429, 0.2144075255430341, 2.2227417541398373, -2.200564614538936, -0.018182764434726], qnear=[0.45839211344718933, -1.1126187483416956, -1.9930437246905726, -1.6231473127948206, 1.5793999433517456, -2.693198029194967]), a=1.3962634015954636, v=1.0471975511965976)
2025-05-28 22:27:41 - movej(get_inverse_kin(p[0.32591455130760943, 0.04764143042395294, 0.21418013474202868, 2.223069571172583, -2.200440318987443, -0.018353395155393967], qnear=[0.4791293144226074, -1.1555846373187464, -1.970412556325094, -1.6025684515582483, 1.579856038093567, -2.6726749579059046]), a=1.3962634015954636, v=1.0471975511965976)
2025-05-28 22:27:42 - movej(get_inverse_kin(p[0.3116146050883399, 0.061698739998417185, 0.21450218441134442, 2.2231375179029453, -2.2009075556353257, -0.018088448875461648], qnear=[0.5413873791694641, -1.1234262625323694, -1.9873860518084925, -1.6168788115130823, 1.5808279514312744, -2.6102314631091517]), a=1.3962634015954636, v=1.0471975511965976)
2025-05-28 22:27:46 - movej(get_inverse_kin(p[0.3315972682952904, 0.06176524085422255, 0.21404067746883904, 2.222980649521607, -2.20035135693879, -0.018405664974127055], qnear=[0.5095999836921692, -1.1769369284259241, -1.9585455099688929, -1.592992130910055, 1.5803358554840088, -2.64221436182131]), a=1.3962634015954636, v=1.0471975511965976)
2025-05-28 22:27:48 - movej(get_inverse_kin(p[0.3515770475492359, 0.06197510533444746, 0.21369328336342236, 2.222957491751399, -2.200324010623626, -0.01840907952868995], qnear=[0.4817991852760315, -1.2292769590960901, -1.92741567293276, -1.5720189253436487, 1.579820156097412, -2.670037571583883]), a=1.3962634015954636, v=1.0471975511965976)
2025-05-28 22:27:53 - movej(get_inverse_kin(p[0.3716151794924002, 0.06215697059490571, 0.2133702311904561, 2.2229783323358427, -2.2003422424784636, -0.01829071847744162], qnear=[0.45684728026390076, -1.2808540503131312, -1.8939841429339808, -1.5539935270892542, 1.5792920589447021, -2.6950202623950403]), a=1.3962634015954636, v=1.0471975511965976)
2025-05-28 22:27:55 - movej(get_inverse_kin(p[0.39161125716919715, 0.06230597523755609, 0.2129774911421126, 2.222875323133054, -2.2002146090131127, -0.01821243052683266], qnear=[0.43440982699394226, -1.331656281148092, -1.858514134083883, -1.5389402548419397, 1.5787639617919922, -2.717509094868795]), a=1.3962634015954636, v=1.0471975511965976)
2025-05-28 22:27:57 - movej(get_inverse_kin(p[0.39195797581589137, 0.06239449732032411, 0.2130942907916458, 2.2232122590812535, -2.2003855063570943, -0.01783168827943322], qnear=[0.4343143105506897, -1.3322556654559534, -1.8578665892230433, -1.5385687986956995, 1.5786561965942383, -2.7176767031299036]), a=1.3962634015954636, v=1.0471975511965976)
2025-05-28 22:27:59 - movej(get_inverse_kin(p[0.41193900819587087, 0.06254100434167925, 0.21267604577136962, 2.2228937164253932, -2.200314657344931, -0.018102019837026046], qnear=[0.4139474928379059, -1.3824499289142054, -1.8201664129840296, -1.5265119711505335, 1.5783321857452393, -2.737984005604879]), a=1.3962634015954636, v=1.0471975511965976)
2025-05-28 22:28:01 - movej(get_inverse_kin(p[0.4182215169555875, 0.06273650626927571, 0.21232697915574625, 2.2222537077661046, -2.1996032408103376, -0.018271718335836507], qnear=[0.4084516167640686, -1.3986671606646937, -1.8077719847308558, -1.5236476103412073, 1.5779719352722168, -2.7435346285449427]), a=1.3962634015954636, v=1.0471975511965976)
2025-05-28 22:28:03 - movej(get_inverse_kin(p[0.438175056717084, 0.06308627135765502, 0.21186502086628095, 2.222251476556733, -2.199589524007555, -0.018730057139921274], qnear=[0.3908025920391083, -1.4479554335223597, -1.7674701849566858, -1.5148747603045862, 1.577876091003418, -2.761252466832296]), a=1.3962634015954636, v=1.0471975511965976)
2025-05-28 22:28:04 - movej(get_inverse_kin(p[0.4557971849942233, 0.06331717448657455, 0.21156716466734535, 2.2224900398417184, -2.1997408331092703, -0.019057789550269124], qnear=[0.37629082798957825, -1.4908340612994593, -1.7300809065448206, -1.5092900435077112, 1.577876091003418, -2.7758658568011683]), a=1.3962634015954636, v=1.0471975511965976)
2025-05-28 22:28:06 - movej(get_inverse_kin(p[0.4747961481142463, 0.06358398437598352, 0.2111809827256581, 2.222469509127279, -2.1993742485942507, -0.019206613385432864], qnear=[0.36207789182662964, -1.5369399229632776, -1.687716309224264, -1.5059102217303675, 1.577552080154419, -2.7903109232531946]), a=1.3962634015954636, v=1.0471975511965976)
2025-05-28 22:28:08 - movej(get_inverse_kin(p[0.49813810125736735, 0.06372125650624111, 0.21068957255964346, 2.22213913188809, -2.199647268946647, -0.01927697859139009], qnear=[0.34569770097732544, -1.592940632496969, -1.6332791487323206, -1.504484001790182, 1.5772281885147095, -2.806518856679098]), a=1.3962634015954636, v=1.0471975511965976)
2025-05-28 22:28:08 - movej(get_inverse_kin(p[0.49809926838161567, 0.06845082231197236, 0.21072456444928359, 2.221942894976925, -2.199878032927816, -0.019072066295724225], qnear=[0.3547499179840088, -1.5942710081683558, -1.6318534056292933, -1.5044601599322718, 1.577288031578064, -2.797276322041647]), a=1.3962634015954636, v=1.0471975511965976)
2025-05-28 22:28:10 - movej(get_inverse_kin(p[0.49771958826030704, 0.1037040407091971, 0.21061095623583054, 2.221974722244369, -2.1997407245078233, -0.019179614653884257], qnear=[0.4204968810081482, -1.6078193823443812, -1.6182106176959437, -1.5042923132525843, 1.5785239934921265, -2.731642548237936]), a=1.3962634015954636, v=1.0471975511965976)
2025-05-28 22:28:11 - movej(get_inverse_kin(p[0.4978034800400448, 0.08715463693944811, 0.2106009986689471, 2.2220798773053274, -2.1996788542305854, -0.01984268250416265], qnear=[0.3897850513458252, -1.6007092634784144, -1.6255353132831019, -1.504388157521383, 1.5783681869506836, -2.7624154726611536]), a=1.3962634015954636, v=1.0471975511965976)
2025-05-28 22:28:54 - movej(get_inverse_kin(p[0.5014293880206697, 0.08412503136489365, 0.21183391389448314, 2.2238314022487407, -2.1987808887820717, -0.01853722645327459], qnear=[0.3817503750324249, -1.6072076002704065, -1.6158369223224085, -1.506749455128805, 1.577672004699707, -2.7716577688800257]), a=1.3962634015954636, v=1.0471975511965976)
2025-05-28 22:29:32 - movej(get_inverse_kin(p[0.2791123889598582, 0.04593344942425004, 0.2182683796664599, 2.216607504085638, -2.213613290852618, -0.007114727348536656], qnear=[0.5593457221984863, -1.0216410795794886, -2.028116051350729, -1.6720007101642054, 1.5753684043884277, -2.5835354963885706]), a=1.3962634015954636, v=1.0471975511965976)
2025-05-28 22:29:33 - movej(get_inverse_kin(p[0.29918244190272497, 0.02596350951129501, 0.21813192818419438, 2.21663503354577, -2.213347618605776, -0.007324825848023317], qnear=[0.4595414698123932, -1.0704949537860315, -2.0061209837542933, -1.645536247883932, 1.5744200944900513, -2.6834636370288294]), a=1.3962634015954636, v=1.0471975511965976)
2025-05-28 22:29:35 - movej(get_inverse_kin(p[0.309674939976811, 0.02599373126116714, 0.21812747748035824, 2.216913722584338, -2.2137122272368077, -0.006918207476768843], qnear=[0.4438447654247284, -1.0989607016192835, -1.9922164122210901, -1.6304824987994593, 1.5741444826126099, -2.6991196314441126]), a=1.3962634015954636, v=1.0471975511965976)
2025-05-28 22:29:36 - movej(get_inverse_kin(p[0.31916816890027616, 0.043552946921688346, 0.2178824350972005, 2.216281233031933, -2.2135687648941897, -0.006975248162642083], qnear=[0.4822901785373688, -1.1303756872760218, -1.9763219992267054, -1.6154411474811, 1.5743601322174072, -2.660459582005636]), a=1.3962634015954636, v=1.0471975511965976)
2025-05-28 22:29:37 - movej(get_inverse_kin(p[0.32296281000182464, 0.049706100698690095, 0.21796060725828204, 2.216717876215696, -2.2137522040994546, -0.006986934382499782], qnear=[0.4940474331378937, -1.1427162329303187, -1.9695137182818812, -1.6094725767718714, 1.5746002197265625, -2.6488195101367396]), a=1.3962634015954636, v=1.0471975511965976)
2025-05-28 22:32:03 - movej(get_inverse_kin(p[0.29917881275359454, 0.045943192862934135, 0.21813646875502066, 2.216469212066249, -2.2138330068079974, -0.007134192020876572], qnear=[0.5217399597167969, -1.0769880453692835, -2.0030644575702112, -1.6417368094073694, 1.574984073638916, -2.620972458516256]), a=1.3962634015954636, v=1.0471975511965976)
2025-05-28 22:32:05 - movej(get_inverse_kin(p[0.31917250842747674, 0.045927034556769115, 0.21791713221052572, 2.216306888893078, -2.213775010452927, -0.007160065362760337], qnear=[0.4890069365501404, -1.131249729787008, -1.9757946173297327, -1.6149614492999476, 1.5745882987976074, -2.6536622683154505]), a=1.3962634015954636, v=1.0471975511965976)
2025-05-28 22:32:06 - movej(get_inverse_kin(p[0.3391682363663901, 0.045926343091456524, 0.2177316207392476, 2.2163707107943758, -2.2138179173493646, -0.0070787891269302825], qnear=[0.460211843252182, -1.184413258229391, -1.946235481892721, -1.5913146177874964, 1.5742284059524536, -2.6824806372271937]), a=1.3962634015954636, v=1.0471975511965976)
2025-05-28 22:32:08 - movej(get_inverse_kin(p[0.3589177781202734, 0.045997625228235514, 0.21756169743210485, 2.21656394498668, -2.213757276018576, -0.007100724501034346], qnear=[0.43508055806159973, -1.2360833326922815, -1.9147570768939417, -1.5710719267474573, 1.5739766359329224, -2.7077508608447474]), a=1.3962634015954636, v=1.0471975511965976)
2025-05-28 22:32:27 - movej(get_inverse_kin(p[0.2967536887634124, 0.04596358092218155, 0.21807736931147312, 2.21670185181621, -2.213440169296014, -0.007202817843916895], qnear=[0.5260621905326843, -1.0704353491412562, -2.0063489119159144, -1.6451166311847132, 1.57504403591156, -2.6169329325305384]), a=1.3962634015954636, v=1.0471975511965976)
2025-05-28 22:32:29 - movej(get_inverse_kin(p[0.29911379715115927, 0.05219516379225542, 0.218058907927132, 2.2166981897055154, -2.2135025194494244, -0.006943520957411496], qnear=[0.5408724546432495, -1.0796120802508753, -2.0019858519183558, -1.6401904265033167, 1.5750319957733154, -2.6020923296557825]), a=1.3962634015954636, v=1.0471975511965976)
2025-05-29 08:57:48 - movej(get_inverse_kin(p[0.2920266764751673, 0.045908703876570346, 0.21810596182534053, 2.2163581017411507, -2.2137583340033715, -0.007016699431911485], qnear=[0.534538745880127, -1.0573881308185022, -2.0124500433551233, -1.6520326773272913, 1.5750200748443604, -2.6081579367267054]), a=1.3962634015954636, v=1.0471975511965976)
